X:577
T:
S:Upptecknad såsom Jakobsson Kulde i När spelat den för samlaren.
R:polka
O:Gotland, När
M:2/4
L:1/16
K:C
G2c2 BcdB|c2e2 g4|a2d2 fed2|g2c2 edc2|G2c2 BcdB|c2e2 g4|c'2ba gfed|e2e2 e2 z2|
G2c2 BcdB|c2e2 g4|a2d2 fed2|g2c2 edc2|G2c2 BcdB|c2e2 g4|c'2ba gfed|e2e2 e2
z2::e2d2 dGAB|d2c2 defg|a2g2 gfde|f2e2 edcd|e2d2 dGAB|d2c2 defg|a2g2
gfed|c2c2 c4:|

